exported-svg/globe.svg

<svg height="24" viewBox="0 0 24 24" width="24" xmlns="http://www.w3.org/2000/svg"><path d="m11.311431 2.02333526c-5.03684133.34253666-9.04989196 4.41475938-9.2991485 9.47666474h5.50561635c.18106989-3.49129386 1.51538004-6.82468071 3.79353215-9.47666474zm1.3771366-.0000001c2.274198 2.64741389 3.6078279 5.97459719 3.7925801 9.47666484h5.5065698c-.2492566-5.06190583-4.2623079-9.13412884-9.2991499-9.47666484zm9.2991499 10.47666484h-5.5056163c-.1810699 3.4912939-1.5153801 6.8246807-3.7935322 9.4766647 5.0368413-.3425366 9.049892-4.4147593 9.2991485-9.4766647zm-10.6762851 9.4766648c-2.274198-2.6474138-3.60782795-5.9745971-3.79258009-9.4766648h-5.50656981c.24925656 5.0619058 4.26230791 9.1341288 9.2991499 9.4766648zm-2.79308897-10.4766648h6.96232227c-.178073-3.21558243-1.4005383-6.28551774-3.4806669-8.7429833-2.0840282 2.46202289-3.30717376 5.53793224-3.48165537 8.7429833zm6.96331317 1h-6.96232232c.178073 3.2155824 1.40053833 6.2855177 3.48066692 8.7429833 2.0840282-2.4620229 3.3071738-5.5379322 3.4816554-8.7429833zm-3.4816566 10.5c-6.07513225 0-11-4.9248678-11-11 0-6.07513225 4.92486775-11 11-11 6.0751322 0 11 4.92486775 11 11 0 6.0751322-4.9248678 11-11 11z"/></svg>

<?xml version="1.0" encoding="UTF-8"?>
<svg width="24px" height="24px" viewBox="0 0 24 24" version="1.1" xmlns="http://www.w3.org/2000/svg" xmlns:xlink="http://www.w3.org/1999/xlink">
    <!-- Generator: Sketch 55.2 (78181) - https://sketchapp.com -->
    <title>globe</title>
    <desc>Created with Sketch.</desc>
    <g id="globe" stroke="none" stroke-width="1" fill="none" fill-rule="evenodd">
        <path d="M11.311431,2.02333526 C6.27458967,2.36587192 2.26153904,6.43809464 2.0122825,11.5 L7.51789885,11.5 C7.69896874,8.00870614 9.03327889,4.67531929 11.311431,2.02333526 Z M12.6885676,2.02333516 C14.9627656,4.67074905 16.2963955,7.99793235 16.4811477,11.5 L21.9877175,11.5 C21.7384609,6.43809417 17.7254096,2.36587116 12.6885676,2.02333516 Z M21.9877175,12.5 L16.4821012,12.5 C16.3010313,15.9912939 14.9667211,19.3246807 12.688569,21.9766647 C17.7254103,21.6341281 21.738461,17.5619054 21.9877175,12.5 Z M11.3114324,21.9766648 C9.0372344,19.329251 7.70360445,16.0020677 7.51885231,12.5 L2.0122825,12.5 C2.26153906,17.5619058 6.27459041,21.6341288 11.3114324,21.9766648 Z M8.51834343,11.5 L15.4806657,11.5 C15.3025927,8.28441757 14.0801274,5.21448226 11.9999988,2.7570167 C9.9159706,5.21903959 8.69282504,8.29494894 8.51834343,11.5 Z M15.4816566,12.5 L8.51933428,12.5 C8.69740728,15.7155824 9.91987261,18.7855177 12.0000012,21.2429833 C14.0840294,18.7809604 15.307175,15.7050511 15.4816566,12.5 Z M12,23 C5.92486775,23 1,18.0751322 1,12 C1,5.92486775 5.92486775,1 12,1 C18.0751322,1 23,5.92486775 23,12 C23,18.0751322 18.0751322,23 12,23 Z" id="Combined-Shape" fill="#000000" fill-rule="nonzero"></path>
    </g>
</svg>
